build/finance/CurrencyOutline.svg

<svg xmlns="http://www.w3.org/2000/svg" fill="none" viewBox="0 0 24 24" focusable="false"><path fill="none" d="M0 0H24V24H0z"/><path fill="#74767B" fill-rule="evenodd" d="M20.5438 3.45942C20.7977 3.71326 20.7977 4.12482 20.5438 4.37866L18.1121 6.81036C19.304 8.20736 20.0234 10.0196 20.0234 11.9998C20.0234 13.9787 19.305 15.7897 18.1146 17.1863L20.5418 19.6209C20.7956 19.8748 20.7956 20.2863 20.5418 20.5402C20.2879 20.794 19.8764 20.794 19.6225 20.5402L17.1942 18.1044C15.7998 19.2867 13.9949 19.9998 12.0234 19.9998C10.0458 19.9998 8.23574 19.2822 6.83949 18.0932L4.38486 20.5396C4.13102 20.7934 3.71946 20.7934 3.46562 20.5396C3.21178 20.2858 3.21178 19.8742 3.46562 19.6204L5.91399 17.1648C4.73458 15.7711 4.02345 13.9685 4.02345 11.9998C4.02345 10.0308 4.73482 8.22787 5.91457 6.83412L3.45912 4.37866C3.20528 4.12482 3.20528 3.71326 3.45912 3.45942C3.71296 3.20558 4.12452 3.20558 4.37836 3.45942L6.83187 5.91294C8.22916 4.72003 10.0422 3.9998 12.0234 3.9998C13.9935 3.9998 15.7972 4.7119 17.1913 5.89274L19.6246 3.45942C19.8784 3.20558 20.29 3.20558 20.5438 3.45942ZM5.179 11.9998C5.179 8.21972 8.24337 5.15536 12.0234 5.15536C15.8035 5.15536 18.8679 8.21972 18.8679 11.9998C18.8679 15.7799 15.8035 18.8442 12.0234 18.8442C8.24337 18.8442 5.179 15.7799 5.179 11.9998Z"/></svg>

<svg xmlns="http://www.w3.org/2000/svg" fill="none" viewBox="0 0 24 24" focusable="false"><path fill="none" d="M0 0h24v24H0z"/><path fill="#74767B" fill-rule="evenodd" d="M20.54 3.45c.25.26.25.67 0 .92l-2.43 2.44a7.94 7.94 0 0 1 1.91 5.18c0 1.98-.72 3.79-1.91 5.19l2.43 2.44c.25.25.25.66 0 .92-.26.25-.67.25-.92 0l-2.43-2.44a8 8 0 0 1-5.17 1.89c-1.98 0-3.79-.71-5.19-1.9l-2.45 2.44a.64.64 0 0 1-.92 0 .646.646 0 0 1 0-.91l2.45-2.46a7.97 7.97 0 0 1-1.89-5.17c0-1.96.71-3.77 1.89-5.16L3.45 4.37a.66.66 0 0 1 0-.92c.26-.25.67-.25.92 0l2.46 2.46a7.97 7.97 0 0 1 5.19-1.92c1.97 0 3.77.72 5.17 1.9l2.43-2.44c.25-.25.67-.25.92 0M5.17 11.99c0-3.78 3.07-6.84 6.85-6.84s6.84 3.06 6.84 6.84-3.06 6.85-6.84 6.85-6.85-3.07-6.85-6.85"/></svg>
